X:70
T:Steffaleken
R:Rrospols
Z:Transcribed to abcby Jon Magnusson 080828
O:Brekken, Norge
M:3/4
L:1/8
K:D
d2 d>c Ad|f2 f>d ef|(3geg (3fdf e>c|(3def d>c AA|
d2 d>c Ad|f2 f>d ef|(3geg (3fdf e>c|(3def d4:|
a2 a>f ge|f2 df ef|(3geg (3fdf e>c|(3def d>c Af|
a2 a>f ge|f2 df ef|(3geg (3fdf e>c|(3def d4:|



